X: 293
%
U:~=!turn!
T: Lady Charlotte Gordon
C:Marshall
O:Scotland
B:Keith Norman MacDonald : "The Skye collection of the best reels & strathspeys extant" : 1887
Z:Ralph Palmer
R:Reel
M:C
L:1/8
K:F
Tf2 (cf) BfAf | Tf2 (af) gG-G2 | Tf2 (cf) BfAf | [1 B<TGc>B (AF)F :| [2 dbge af-f2 ||
AFcF dFcF | (fdcA) BGG(B | A)!wedge!FcF dFcF | afge fFF(B |
A)FcF dFcF | (fdcA) BGGB | AFcF defg | afge fF F2 |]


